Icons/rename_me_xposed_installer.svg

<svg viewBox="0 0 48 48" xmlns:xlink="http://www.w3.org/1999/xlink">
 <defs>
  <linearGradient id="0">
   <stop stop-opacity="0"/>
   <stop offset="1"/>
  </linearGradient>
  <linearGradient xlink:href="#0" id="1" gradientUnits="userSpaceOnUse" gradientTransform="translate(4e-7,-48)" y1="47" x2="0" y2="1"/>
  <clipPath id="2">
   <g transform="translate(0,-1004.3622)">
    <rect rx="4" y="1005.36" x="1" height="46" width="46" fill="#1890d0"/>
   </g>
  </clipPath>
  <clipPath id="3">
   <g transform="translate(0,-1004.3622)">
    <rect rx="4" y="1005.36" x="1" height="46" width="46" fill="#1890d0"/>
   </g>
  </clipPath>
 </defs>
 <g>
  <g transform="translate(0,-1004.3622)">
   <path d="m 5,1006.3622 c -2.216,0 -4,1.784 -4,4 l 0,37.25 c 0,2.216 1.784,4 4,4 l 38,0 c 2.216,0 4,-1.784 4,-4 l 0,-37.25 c 0,-2.216 -1.784,-4 -4,-4 l -38,0 z m -4,41.5 0,0.5 c 0,2.216 1.784,4 4,4 l 38,0 c 2.216,0 4,-1.784 4,-4 l 0,-0.5 c 0,2.216 -1.784,4 -4,4 l -38,0 c -2.216,0 -4,-1.784 -4,-4 z" opacity="0.02"/>
   <path d="m 1,1047.6122 0,0.25 c 0,2.216 1.784,4 4,4 l 38,0 c 2.216,0 4,-1.784 4,-4 l 0,-0.25 c 0,2.216 -1.784,4 -4,4 l -38,0 c -2.216,0 -4,-1.784 -4,-4 z" opacity="0.05"/>
   <rect width="46" height="46" x="1" y="1005.61" rx="4" opacity="0.1"/>
  </g>
 </g>
 <g>
  <g transform="translate(0,-1004.3622)">
   <rect rx="4" y="1005.36" x="1" height="46" width="46" fill="#ace57e"/>
  </g>
 </g>
 <g>
  <rect transform="scale(1,-1)" width="46" height="46" x="1" y="-46.998" rx="4" opacity="0.1" fill="url(#1)"/>
 </g>
 <g>
  <g clip-path="url(#2)">
   <g opacity="0.1">
    <g>
     <path d="M 33.4375 19 C 32.570312 19 32 19.757812 32 20.691406 L 32 27.308594 C 32 28.242188 32.570312 29 33.4375 29 C 34.300781 29 35 28.242188 35 27.308594 L 35 20.691406 C 35 19.757812 34.300781 19 33.4375 19 Z M 14.566406 19 C 13.699219 19 13 19.757812 13 20.691406 L 13 27.308594 C 13 28.242188 13.699219 29 14.566406 29 C 15.429688 29 16 28.242188 16 27.308594 L 16 20.691406 C 16 19.757812 15.429688 19 14.566406 19 Z M 14.566406 19 "/>
     <path d="M 17 19 L 17 30.59375 C 17 31.28125 17.324219 32 18 32 L 20 32 L 20 35.375 C 20 36.273438 20.316406 37 21.1875 37 C 22.054688 37 23 36.273438 23 35.375 L 23 32 L 25 32 L 25 35.375 C 25 36.273438 25.945312 37 26.8125 37 C 27.679688 37 28 36.273438 28 35.375 L 28 32 L 30 32 C 30.675781 32 31 31.28125 31 30.59375 L 31 19 Z M 20.5 21 L 21.75 21 L 24 24.59375 L 26.5 21 L 27.75 21 L 25 25.5 L 28 30 L 26.75 30 L 24 26.40625 L 21.25 30 L 20 30 L 23 25.5 Z M 20.5 21 "/>
     <path d="M 27.316406 13.199219 L 28.613281 11.355469 C 28.6875 11.246094 28.667969 11.101562 28.570312 11.035156 C 28.46875 10.96875 28.324219 11 28.246094 11.109375 L 26.90625 13.023438 C 26.019531 12.679688 25.035156 12.492188 24 12.492188 C 22.964844 12.492188 21.980469 12.679688 21.09375 13.023438 L 19.75 11.109375 C 19.675781 11 19.53125 10.96875 19.429688 11.035156 C 19.332031 11.101562 19.3125 11.246094 19.386719 11.355469 L 20.679688 13.199219 C 18.625 14.136719 17.183594 15.917969 17 18 L 31 18 C 30.816406 15.917969 29.375 14.136719 27.316406 13.199219 Z M 21.046875 16.101562 C 20.617188 16.101562 20.273438 15.761719 20.273438 15.339844 C 20.273438 14.921875 20.617188 14.582031 21.046875 14.582031 C 21.476562 14.582031 21.820312 14.921875 21.820312 15.339844 C 21.820312 15.761719 21.472656 16.101562 21.046875 16.101562 Z M 27.050781 16.101562 C 26.621094 16.101562 26.277344 15.761719 26.277344 15.339844 C 26.277344 14.921875 26.621094 14.582031 27.050781 14.582031 C 27.476562 14.582031 27.824219 14.921875 27.824219 15.339844 C 27.824219 15.761719 27.476562 16.101562 27.050781 16.101562 Z M 27.050781 16.101562 "/>
    </g>
   </g>
  </g>
 </g>
 <g>
  <g clip-path="url(#3)">
   <g transform="translate(0,-1)">
    <g>
     <path d="M 33.4375 19 C 32.570312 19 32 19.757812 32 20.691406 L 32 27.308594 C 32 28.242188 32.570312 29 33.4375 29 C 34.300781 29 35 28.242188 35 27.308594 L 35 20.691406 C 35 19.757812 34.300781 19 33.4375 19 Z M 14.566406 19 C 13.699219 19 13 19.757812 13 20.691406 L 13 27.308594 C 13 28.242188 13.699219 29 14.566406 29 C 15.429688 29 16 28.242188 16 27.308594 L 16 20.691406 C 16 19.757812 15.429688 19 14.566406 19 Z M 14.566406 19 " fill="#535353"/>
     <path d="M 17 19 L 17 30.59375 C 17 31.28125 17.324219 32 18 32 L 20 32 L 20 35.375 C 20 36.273438 20.316406 37 21.1875 37 C 22.054688 37 23 36.273438 23 35.375 L 23 32 L 25 32 L 25 35.375 C 25 36.273438 25.945312 37 26.8125 37 C 27.679688 37 28 36.273438 28 35.375 L 28 32 L 30 32 C 30.675781 32 31 31.28125 31 30.59375 L 31 19 Z M 20.5 21 L 21.75 21 L 24 24.59375 L 26.5 21 L 27.75 21 L 25 25.5 L 28 30 L 26.75 30 L 24 26.40625 L 21.25 30 L 20 30 L 23 25.5 Z M 20.5 21 " fill="#535353"/>
     <path d="M 27.316406 13.199219 L 28.613281 11.355469 C 28.6875 11.246094 28.667969 11.101562 28.570312 11.035156 C 28.46875 10.96875 28.324219 11 28.246094 11.109375 L 26.90625 13.023438 C 26.019531 12.679688 25.035156 12.492188 24 12.492188 C 22.964844 12.492188 21.980469 12.679688 21.09375 13.023438 L 19.75 11.109375 C 19.675781 11 19.53125 10.96875 19.429688 11.035156 C 19.332031 11.101562 19.3125 11.246094 19.386719 11.355469 L 20.679688 13.199219 C 18.625 14.136719 17.183594 15.917969 17 18 L 31 18 C 30.816406 15.917969 29.375 14.136719 27.316406 13.199219 Z M 21.046875 16.101562 C 20.617188 16.101562 20.273438 15.761719 20.273438 15.339844 C 20.273438 14.921875 20.617188 14.582031 21.046875 14.582031 C 21.476562 14.582031 21.820312 14.921875 21.820312 15.339844 C 21.820312 15.761719 21.472656 16.101562 21.046875 16.101562 Z M 27.050781 16.101562 C 26.621094 16.101562 26.277344 15.761719 26.277344 15.339844 C 26.277344 14.921875 26.621094 14.582031 27.050781 14.582031 C 27.476562 14.582031 27.824219 14.921875 27.824219 15.339844 C 27.824219 15.761719 27.476562 16.101562 27.050781 16.101562 Z M 27.050781 16.101562 " fill="#535353"/>
    </g>
   </g>
  </g>
 </g>
 <g>
  <g transform="translate(0,-1004.3622)">
   <path d="m 1,1043.3622 0,4 c 0,2.216 1.784,4 4,4 l 38,0 c 2.216,0 4,-1.784 4,-4 l 0,-4 c 0,2.216 -1.784,4 -4,4 l -38,0 c -2.216,0 -4,-1.784 -4,-4 z" opacity="0.1"/>
  </g>
 </g>
</svg>

<svg viewBox="0 0 48 48"><defs><linearGradient id="linearGradient3764" x1="1" x2="47" gradientUnits="userSpaceOnUse" gradientTransform="translate(-48.000001,0.00221467)"><stop stop-color="#a2e26e" stop-opacity="1"/><stop offset="1" stop-color="#ace57e" stop-opacity="1"/></linearGradient><clipPath id="clipPath-580122531"><g transform="translate(0,-1004.3622)"><rect rx="4" y="1005.36" x="1" height="46" width="46" fill="#1890d0"/></g></clipPath><clipPath id="clipPath-593641607"><g transform="translate(0,-1004.3622)"><rect rx="4" y="1005.36" x="1" height="46" width="46" fill="#1890d0"/></g></clipPath></defs><g><path d="m 1 43 l 0 0.25 c 0 2.216 1.784 4 4 4 l 38 0 c 2.216 0 4 -1.784 4 -4 l 0 -0.25 c 0 2.216 -1.784 4 -4 4 l -38 0 c -2.216 0 -4 -1.784 -4 -4 z m 0 0.5 l 0 0.5 c 0 2.216 1.784 4 4 4 l 38 0 c 2.216 0 4 -1.784 4 -4 l 0 -0.5 c 0 2.216 -1.784 4 -4 4 l -38 0 c -2.216 0 -4 -1.784 -4 -4 z" opacity="0.02"/><path d="m 1 43.25 l 0 0.25 c 0 2.216 1.784 4 4 4 l 38 0 c 2.216 0 4 -1.784 4 -4 l 0 -0.25 c 0 2.216 -1.784 4 -4 4 l -38 0 c -2.216 0 -4 -1.784 -4 -4 z" opacity="0.05"/><path d="m 1 43 l 0 0.25 c 0 2.216 1.784 4 4 4 l 38 0 c 2.216 0 4 -1.784 4 -4 l 0 -0.25 c 0 2.216 -1.784 4 -4 4 l -38 0 c -2.216 0 -4 -1.784 -4 -4 z" opacity="0.1"/></g><g><rect width="46" height="46" x="-47" y="1" rx="4" transform="matrix(0,-1,1,0,0,0)" fill="url(#linearGradient3764)" fill-opacity="1"/></g><g><g clip-path="url(#clipPath-580122531)"><g opacity="0.1"><!-- color: #ace57e --><g><path d="m 33.438 19 c -0.867 0 -1.438 0.758 -1.438 1.691 l 0 6.617 c 0 0.934 0.57 1.691 1.438 1.691 c 0.863 0 1.563 -0.758 1.563 -1.691 l 0 -6.617 c 0 -0.934 -0.699 -1.691 -1.563 -1.691 m -18.871 0 c -0.867 0 -1.566 0.758 -1.566 1.691 l 0 6.617 c 0 0.934 0.699 1.691 1.566 1.691 c 0.863 0 1.434 -0.758 1.434 -1.691 l 0 -6.617 c 0 -0.934 -0.57 -1.691 -1.434 -1.691 m 0 0" fill="#000"/><path d="m 17 19 l 0 11.594 c 0 0.688 0.324 1.406 1 1.406 l 2 0 l 0 3.375 c 0 0.898 0.316 1.625 1.188 1.625 c 0.867 0 1.813 -0.727 1.813 -1.625 l 0 -3.375 l 2 0 l 0 3.375 c 0 0.898 0.945 1.625 1.813 1.625 c 0.867 0 1.188 -0.727 1.188 -1.625 l 0 -3.375 l 2 0 c 0.676 0 1 -0.719 1 -1.406 l 0 -11.594 m -10.5 2 l 1.25 0 l 2.25 3.594 l 2.5 -3.594 l 1.25 0 l -2.75 4.5 l 3 4.5 l -1.25 0 l -2.75 -3.594 l -2.75 3.594 l -1.25 0 l 3 -4.5 m -2.5 -4.5" fill="#000"/><path d="m 27.316 13.199 l 1.297 -1.844 c 0.074 -0.109 0.055 -0.254 -0.043 -0.32 c -0.102 -0.066 -0.246 -0.035 -0.324 0.074 l -1.34 1.914 c -0.887 -0.344 -1.871 -0.531 -2.906 -0.531 c -1.035 0 -2.02 0.188 -2.906 0.531 l -1.344 -1.914 c -0.074 -0.109 -0.219 -0.141 -0.32 -0.074 c -0.098 0.066 -0.117 0.211 -0.043 0.32 l 1.293 1.844 c -2.055 0.938 -3.496 2.719 -3.68 4.801 l 14 0 c -0.184 -2.082 -1.625 -3.863 -3.684 -4.801 m -6.27 2.902 c -0.43 0 -0.773 -0.34 -0.773 -0.762 c 0 -0.418 0.344 -0.758 0.773 -0.758 c 0.43 0 0.773 0.34 0.773 0.758 c 0 0.422 -0.348 0.762 -0.773 0.762 m 6 0 c -0.43 0 -0.773 -0.34 -0.773 -0.762 c 0 -0.418 0.344 -0.758 0.773 -0.758 c 0.426 0 0.773 0.34 0.773 0.758 c 0 0.422 -0.348 0.762 -0.773 0.762 m 0 0" fill="#000"/></g></g></g></g><g><g clip-path="url(#clipPath-593641607)"><g transform="translate(0,-1)"><!-- color: #ace57e --><g><path d="m 33.438 19 c -0.867 0 -1.438 0.758 -1.438 1.691 l 0 6.617 c 0 0.934 0.57 1.691 1.438 1.691 c 0.863 0 1.563 -0.758 1.563 -1.691 l 0 -6.617 c 0 -0.934 -0.699 -1.691 -1.563 -1.691 m -18.871 0 c -0.867 0 -1.566 0.758 -1.566 1.691 l 0 6.617 c 0 0.934 0.699 1.691 1.566 1.691 c 0.863 0 1.434 -0.758 1.434 -1.691 l 0 -6.617 c 0 -0.934 -0.57 -1.691 -1.434 -1.691 m 0 0" fill="#535353"/><path d="m 17 19 l 0 11.594 c 0 0.688 0.324 1.406 1 1.406 l 2 0 l 0 3.375 c 0 0.898 0.316 1.625 1.188 1.625 c 0.867 0 1.813 -0.727 1.813 -1.625 l 0 -3.375 l 2 0 l 0 3.375 c 0 0.898 0.945 1.625 1.813 1.625 c 0.867 0 1.188 -0.727 1.188 -1.625 l 0 -3.375 l 2 0 c 0.676 0 1 -0.719 1 -1.406 l 0 -11.594 m -10.5 2 l 1.25 0 l 2.25 3.594 l 2.5 -3.594 l 1.25 0 l -2.75 4.5 l 3 4.5 l -1.25 0 l -2.75 -3.594 l -2.75 3.594 l -1.25 0 l 3 -4.5 m -2.5 -4.5" fill="#535353"/><path d="m 27.316 13.199 l 1.297 -1.844 c 0.074 -0.109 0.055 -0.254 -0.043 -0.32 c -0.102 -0.066 -0.246 -0.035 -0.324 0.074 l -1.34 1.914 c -0.887 -0.344 -1.871 -0.531 -2.906 -0.531 c -1.035 0 -2.02 0.188 -2.906 0.531 l -1.344 -1.914 c -0.074 -0.109 -0.219 -0.141 -0.32 -0.074 c -0.098 0.066 -0.117 0.211 -0.043 0.32 l 1.293 1.844 c -2.055 0.938 -3.496 2.719 -3.68 4.801 l 14 0 c -0.184 -2.082 -1.625 -3.863 -3.684 -4.801 m -6.27 2.902 c -0.43 0 -0.773 -0.34 -0.773 -0.762 c 0 -0.418 0.344 -0.758 0.773 -0.758 c 0.43 0 0.773 0.34 0.773 0.758 c 0 0.422 -0.348 0.762 -0.773 0.762 m 6 0 c -0.43 0 -0.773 -0.34 -0.773 -0.762 c 0 -0.418 0.344 -0.758 0.773 -0.758 c 0.426 0 0.773 0.34 0.773 0.758 c 0 0.422 -0.348 0.762 -0.773 0.762 m 0 0" fill="#535353"/></g></g></g></g><g><g transform="translate(0,-1004.3622)"><path d="m 1 1043.36 0 4 c 0 2.216 1.784 4 4 4 l 38 0 c 2.216 0 4 -1.784 4 -4 l 0 -4 c 0 2.216 -1.784 4 -4 4 l -38 0 c -2.216 0 -4 -1.784 -4 -4 z" opacity="0.1"/></g></g></svg>
